!!!OTL: Trost der Vergangenheit.
!!!OTL-incipit:  ICH DENK AN EUCH
!!!COM: Bornhard
!!!ARE: Europa, Mitteleuropa, Deutschland
!!!SCT: F1072
!!!TXL: @@DE
!!!YEM: Copyright 1995, estate of Helmut Schaffrath.
**kern	**text
*ICvox	*
*clefG2	*
*M4/4	*
*met(c)	*
*k[]	*
*C:	*
!LO:TX:a:t=Langſam.	!
{8g	1._Jch
8g	denk'
8g	an
=1	=1
4.e	euch,
8e	ihr
8e	himmliſch
8e	.
8.f	ſchönen
16g	.
=2	=2
8.gL	Ta-
16fJ	.
4d	-ge
4r}	.
{4b	der
=3	=3
4.cc	ſe-
16b/L	-li-
16aJ	.
8g	-gen
8e	Vergan-
8d	.
16eL	-gen-
16fJ	.
=4	=4
(4f	-heit!
4e)	.
8r}	.
{8g	Komm,
8cc	Götter-
8ee	.
=5	=5
4.dd	-kind,
8ee	o
8ff	Phanta-
8dd	.
16ccL	-ſie,
16bJ	.
16aL	und
16gJ	.
=6	=6
(8.g\L	tra-
16ccJ)	.
4cc	-ge
8r}	.
{8cc	mein
8b	ſehnend
8b-	.
=7	=7
8a	Herʒ
8a	ʒu
8b	ſei-
8cc	-ner
(>4gSS	Blü-
8a)	.
8b/	-then-
=8	=8
4cc	-ʒeit.
4r	.
8r}	.
==	==
!!!AGN: Trost - Lied
!!!ONB: ESAC (Essen Associative Code) Database: FINK
!!!AMT: simple quadruple
!!!AIN: vox
!!!EED: Helmut Schaffrath
!!!EEV: 1.0
!!Text: Mahlmann
!!!RDF**kern: > = above
!!!GTL: Trauer- Begraebniss- und Trostlieder
!!!URL-scan: https://www.digitale-sammlungen.de/en/view/bsb11144622?page=679
!!!ENC: Anna Maria Matuszewska
!!!EEV: 2024/08/09
*-	*-
